X:1
T: The Magic of Merrill
T: 8x32R 3C (Lance Ramshaw)
T: 1,2 set; 1 cr dn, turn 1st crnr, 213 set, 1/2 reels across, RS 1/2 R3 sides
P: Return from India
C: from Laura Risk 2012
R: reel
M: 4/4
K: A
L: 1/8
|: e|"A"dcBA cAce|"Bm"dcBA "E7"GBEe|"A"dcBA cAeA|"Bm"fA"E"gA "A"aA A :|
e|"A"agae agae|"Bm"dcBA "E7"GBBe|"A"agae agae|"D"fe"E7"fg "A"aAAe|
"A"aA"E"gA "D"fA"A"eA|"Bm"dcBA "E7"GBed|"A"cABc "D"defg |"E7"agfg "A"aA A |]

